X:1
T:Title
%%score ( 1 2 ) ( 3 4 )
L:1/8
Q:1/4=130
M:4/4
K:A
V:1 treble nm="Choir Aahs, Staff"
V:2 treble 
V:3 bass nm="Choir Aahs, Staff-1"
V:4 bass 
V:1
 [CE]3 [=C^D] [^CE]3 [=CD] | [CE][FA][EG][DF] [DF]2 [CE]2 | z4 e2 z2 | [CA]2 [B,G]2 [CA]4 | %4
w: By~Lowell~Mason * * *||||
 [GB]3 [Ac] [ce][Bd][Ac][GB] | [Ac]2 [Ac]2 z4 | [GB]3 [Ac] [ce][Bd][Ac][GB] | [Ac]4 z2 [EB]>[EB] | %8
w: ||||
 [Ac][Ac] [EB]2 [Ec]2 z2 | z2 [GB]2 [Ac]2 z2 | A4 z4 | [EA]8 |] %12
w: ||||
V:2
 x8 | x8 | [CE]2 [CA][Ec] AE[Fd][DB] | x8 | x8 | x8 | x8 | x8 | x8 | x8 | E2 C2 F4 | x8 |] %12
V:3
 [A,,A,]3 [A,,A,] [A,,A,]3 [A,,A,] | [A,,A,]2 [A,,A,]2 [A,,A,]2 [A,,A,]2 | %2
 [A,,A,]2 [A,,A,]2 [A,C]2 [D,F,]2 | E,2 E,2 [A,,E,]4 | [E,E]6- [E,E]/ z/ E, | %5
 A,E,[C,A,][A,,C] [E,B,]2 [E,B,]2 | [E,E]6- [E,E]/ z/ E, | A,E,[C,A,][A,,C] [E,B,]2 z2 | %8
 z2 [E,G,]2 A,2 [E,B,]>[E,B,] | [A,C][A,C] [E,E]2 [A,E]2 z2 | z4 A,4 | [A,,C]8 |] %12
V:4
 x8 | x8 | x8 | x8 | x8 | x8 | x8 | x8 | x8 | x8 | [A,,C]2 [A,,A,]2 D,3- [D,B,] | x8 |] %12

